X: 14
T: Rakes Of Mallow, The
Z: Sean Perry
S: https://thesession.org/tunes/85#setting50935
R: polka
M: 2/4
L: 1/8
K: Gmaj
|:D|GB GB|GB c/B/A/G/|FA FA|FA d/c/B/A/|
GB GB|GB d>B|c/B/A/G/ F/G/A/c/|BG G:|
|:z|gf/e/ dc|Bc dB|gf/e/ dc|Bc Ad|
gf/e/ dc|Bc dB/d/|c/B/A/G/ F/G/A/c/|BG G:|

%-------------------- TUNE SEPARATOR --------------------%

